X: 2121
T: Saint Patrick's Day
B: nick
B: to learn
M:6/8
R: jig
Q: 3/8=100
K:Gmajor
V:1 
D|:"G"G>AG GAB|d>ed dcB|"Am"A>Bc BAG|"Em"EFE E2 D|
 "G"G>AG GAB|d>ed dcB|"Am"A>Bc BAG|1 "D"E2 F"G"G2 D:|2 "D"E2 F"G"G2 B||
 |:"G"def gag|"D"fed "Em"edB|"G"def gag|"D"fed "C"e2 g|
 "G"G>AG GBc|dge dBG|"Am"A>Bc BAG|1 "D"E2 F"G"G2 B:|2 "D"E2 F"G"G3||
% abcbook-tune_id 6345627d91bd96ba3cb7367b


% abcbook-boost 0
% abcbook-tablature 
% abcbook-transpose 
% abcbook-lastupdated 1666007636270
% abcbook-soundfonts 
% abcbook-repeats 3


